X: 12
T: I Buried My Wife And Danced On Her Grave
C: Garrett Barry
Z: Zara
S: https://thesession.org/tunes/381#setting52214
R: jig
M: 6/8
L: 1/8
K: Dmix
|:DED F2 G|AdB =cAF|GFG BAG|F2F GFE|
DED F2 G|AdB =cAF|GFG BAG|1 ~F2D D2 E:|2 ~F2D D2A||
|:d2 e fed|faf gec|d2 e fed|d=cA d=cA|
d2 e fed|faf gec|dBA BAG|1 ~F2D D2A:|2 ~F2D D2 E||

%-------------------- TUNE SEPARATOR --------------------%

